source/img/svg/icon_tub.svg

<svg width="29" height="31" viewBox="0 0 29 31" fill="none" xmlns="http://www.w3.org/2000/svg">
<g clip-path="url(#clip0)">
<path d="M20.7762 18.4731C19.0702 18.4731 17.6877 19.9515 17.6877 21.7742C17.6877 23.5983 19.0707 25.0761 20.7762 25.0761C22.4818 25.0761 23.8643 23.5978 23.8643 21.7742C23.8643 19.951 22.4813 18.4731 20.7762 18.4731ZM20.7762 23.4864C19.8922 23.4864 19.1753 22.7201 19.1753 21.7751C19.1753 20.8291 19.8922 20.0633 20.7762 20.0633C21.6603 20.0633 22.3776 20.8291 22.3776 21.7751C22.3776 22.7201 21.6603 23.4864 20.7762 23.4864Z" fill="white"/>
<path d="M11.6068 -0.0101318C9.84641 -0.0101318 8.41952 1.51468 8.41952 3.39696C8.41952 5.27924 9.84596 6.80357 11.6068 6.80357C13.3676 6.80357 14.7941 5.27973 14.7941 3.39696C14.7936 1.5142 13.3672 -0.0101318 11.6068 -0.0101318ZM11.6063 5.46573C10.5374 5.46573 9.67105 4.5396 9.67105 3.39648C9.67105 2.25384 10.5374 1.32723 11.6063 1.32723C12.6757 1.32723 13.5421 2.25384 13.5421 3.39648C13.5421 4.5396 12.6757 5.46573 11.6063 5.46573Z" fill="white"/>
<path d="M8.22693 17.6105C6.93326 17.6105 5.88563 18.7303 5.88563 20.1132C5.88563 21.4956 6.93326 22.616 8.22693 22.616C9.5206 22.616 10.5682 21.4956 10.5682 20.1132C10.5682 18.7308 9.5206 17.6105 8.22693 17.6105ZM8.00001 19.5C7.541 19.5 9.15819 20.6039 9.15819 20.1132C9.15819 19.6235 7.541 20.5 8.00001 20.5C8.45857 20.5 9.05705 19.6226 9.05705 20.1123C9.05705 20.6029 8.45857 19.5 8.00001 19.5Z" fill="white"/>
<path d="M18.5002 9.76265C18.5002 9.76265 21.5402 8.9242 24.6781 11.2565C25.5852 12.0164 26.4435 12.5929 25.8304 13.379C25.4869 13.7195 25.1933 14.0358 24.1144 12.8549C23.0604 12.0949 21.3947 10.9566 18.5002 11.4134C17.3724 11.6498 16.5386 11.9641 14.9445 13.5626C13.3509 15.161 10.9724 16.2877 8.44715 16.0518C5.92189 15.8164 4.59831 14.7939 3.20087 13.5098C2.9068 13.0903 2.9068 12.6447 3.07808 12.3826C3.24936 12.1206 3.91137 11.8585 4.27931 12.2514C4.64725 12.6447 6.3877 14.217 8.10369 14.3216C9.82012 14.4262 11.5366 14.5313 13.8407 12.356C16.1467 10.1821 17.299 10.0247 18.5002 9.76265Z" fill="white"/>
<mask id="path-5-inside-1" fill="white">
<path d="M28.6457 26.8156V8.15743C28.6457 7.57909 28.2718 7.5074 28.1218 7.50208H27.6162C27.1227 7.50208 27.0797 8.05862 27.0783 8.24075C27.0783 8.25867 27.0783 8.27368 27.0783 8.29161C27.0783 8.29306 27.0783 8.30129 27.0783 8.30129C27.0797 11.9099 27.0874 26.5545 27.0765 26.8412C27.0642 27.1692 27.0031 28.0076 26.2554 28.7284C25.447 29.4234 24.6378 29.3314 24.6378 29.3314C24.6378 29.3314 4.46056 29.3314 3.98251 29.3048C3.60279 29.2394 2.94078 29.095 2.37664 28.2958C1.81295 27.4966 1.92351 26.4484 1.92351 26.4484V8.31486C1.92351 7.4764 1.24926 7.50256 1.24926 7.50256H0.942042C0.405995 7.50256 0.356604 8.09059 0.353886 8.27901C0.353886 11.7408 0.353886 25.6468 0.353886 26.816C0.353886 28.1529 0.807464 29.2137 1.90176 30.1529C2.9956 31.0916 4.27659 31.0093 4.27659 31.0093C4.27659 31.0093 24.0002 31.0093 24.8584 31.0069C25.7167 31.0044 26.844 30.5903 27.7743 29.4515C28.7037 28.3128 28.6457 26.8156 28.6457 26.8156Z"/>
</mask>
<path d="M28.6457 26.8156V8.15743C28.6457 7.57909 28.2718 7.5074 28.1218 7.50208H27.6162C27.1227 7.50208 27.0797 8.05862 27.0783 8.24075C27.0783 8.25867 27.0783 8.27368 27.0783 8.29161C27.0783 8.29306 27.0783 8.30129 27.0783 8.30129C27.0797 11.9099 27.0874 26.5545 27.0765 26.8412C27.0642 27.1692 27.0031 28.0076 26.2554 28.7284C25.447 29.4234 24.6378 29.3314 24.6378 29.3314C24.6378 29.3314 4.46056 29.3314 3.98251 29.3048C3.60279 29.2394 2.94078 29.095 2.37664 28.2958C1.81295 27.4966 1.92351 26.4484 1.92351 26.4484V8.31486C1.92351 7.4764 1.24926 7.50256 1.24926 7.50256H0.942042C0.405995 7.50256 0.356604 8.09059 0.353886 8.27901C0.353886 11.7408 0.353886 25.6468 0.353886 26.816C0.353886 28.1529 0.807464 29.2137 1.90176 30.1529C2.9956 31.0916 4.27659 31.0093 4.27659 31.0093C4.27659 31.0093 24.0002 31.0093 24.8584 31.0069C25.7167 31.0044 26.844 30.5903 27.7743 29.4515C28.7037 28.3128 28.6457 26.8156 28.6457 26.8156Z" fill="white"/>
</g>
<defs>
<clipPath id="clip0">
<rect width="29" height="31" fill="white"/>
</clipPath>
</defs>
</svg>

<svg width="29" height="31" fill="none" xmlns="http://www.w3.org/2000/svg"><g clip-path="url(#clip0)" fill="#fff"><path d="M20.78 18.47c-1.71 0-3.1 1.48-3.1 3.3 0 1.83 1.4 3.3 3.1 3.3 1.7 0 3.08-1.47 3.08-3.3 0-1.82-1.38-3.3-3.08-3.3zm0 5.02c-.89 0-1.6-.77-1.6-1.71 0-.95.71-1.72 1.6-1.72.88 0 1.6.77 1.6 1.72 0 .94-.72 1.7-1.6 1.7zM11.6-.01c-1.75 0-3.18 1.52-3.18 3.4 0 1.89 1.43 3.41 3.19 3.41s3.18-1.52 3.18-3.4c0-1.89-1.42-3.41-3.18-3.41zm0 5.48c-1.06 0-1.93-.93-1.93-2.07 0-1.15.87-2.07 1.94-2.07 1.07 0 1.93.92 1.93 2.07 0 1.14-.86 2.07-1.93 2.07zM8.23 17.61c-1.3 0-2.34 1.12-2.34 2.5 0 1.39 1.04 2.5 2.34 2.5 1.3 0 2.34-1.11 2.34-2.5 0-1.38-1.05-2.5-2.34-2.5zM8 19.5c-.46 0 1.16 1.1 1.16.61 0-.49-1.62.39-1.16.39.46 0 1.06-.88 1.06-.39 0 .5-.6-.61-1.06-.61zM18.5 9.76s3.04-.84 6.18 1.5c.9.76 1.76 1.33 1.15 2.12-.34.34-.64.66-1.72-.53a6.92 6.92 0 00-5.61-1.44c-1.13.24-1.96.55-3.56 2.15a8.27 8.27 0 01-6.5 2.5c-2.52-.24-3.84-1.27-5.24-2.55-.3-.42-.3-.87-.12-1.13.17-.26.83-.52 1.2-.13.37.4 2.1 1.97 3.82 2.07 1.72.1 3.44.21 5.74-1.96 2.3-2.18 3.46-2.34 4.66-2.6z"/><path d="M28.65 26.82V8.16c0-.58-.38-.65-.53-.66h-.5c-.5 0-.54.56-.54.74V26.84a2.68 2.68 0 01-.82 1.89c-.81.7-1.62.6-1.62.6s-20.18 0-20.66-.03a2.3 2.3 0 01-1.6-1c-.57-.8-.46-1.85-.46-1.85V8.3c0-.83-.67-.8-.67-.8h-.3c-.54 0-.6.58-.6.77v18.54c0 1.33.46 2.4 1.55 3.33 1.1.94 2.38.86 2.38.86h20.58c.86 0 1.98-.42 2.91-1.56.93-1.14.88-2.63.88-2.63z"/></g><defs><clipPath id="clip0"><path fill="#fff" d="M0 0h29v31H0z"/></clipPath></defs></svg>
